white/exmo.svg

<!-- Generated by IcoMoon.io -->
<svg version="1.1" xmlns="http://www.w3.org/2000/svg" width="32" height="32" viewBox="0 0 32 32">
<title>exmo</title>
<path fill="#fff" d="M16 32c-8.837 0-16-7.163-16-16s7.163-16 16-16 16 7.163 16 16-7.163 16-16 16zM19.7 13.055l-0.529-1.055-1.1 0.5-2.885 7.797 1.1-0.5 0.526 1.055 0.018-0.047 2.868-7.75zM26.88 13.238l0.064-0.183-0.525-1.055-1.1 0.5-2.934 7.942 1.1-0.5 0.527 1.058 2.868-7.762zM20.74 19.95l1.689-4.563-1.103 0.5-0.524-1.057-1.694 4.562 0.525 1.058 1.107-0.5zM11.603 15.45h-5.045l0.86 0.8-0.86 0.813h5.040l0.856-0.813-0.851-0.8zM5.86 18.833l-0.86 0.807 0.86 0.805h8.155l-0.857-0.805 0.857-0.808h-8.155zM8.361 12.065l-0.86 0.808 0.86 0.805h8.15l-0.854-0.806 0.855-0.807h-8.15z"></path>
</svg>

<svg xmlns="http://www.w3.org/2000/svg" width="32" height="32"><path fill="#FFF" d="M16 32C7.163 32 0 24.837 0 16S7.163 0 16 0s16 7.163 16 16-7.163 16-16 16zm3.7-18.945L19.171 12l-1.1.5-2.885 7.797 1.1-.5.526 1.055.018-.047 2.868-7.75zm7.18.183l.064-.183L26.419 12l-1.1.5-2.867 7.76-.067.182 1.1-.5.527 1.058 2.868-7.762zm-6.14 6.712l1.689-4.563-1.103.5-.524-1.057-1.694 4.562.525 1.058 1.107-.5zm-9.137-4.5H6.558l.86.8-.86.813h5.04l.856-.813-.851-.8zM5.86 18.833L5 19.64l.86.805h8.155l-.857-.805.857-.808H5.86zm2.501-6.768l-.86.808.86.805h8.15l-.854-.806.855-.807h-8.15z"/></svg>
